icons/svg/16x16/bookmark add/filled.svg

<svg xmlns="http://www.w3.org/2000/svg" width="16" height="16" viewBox="0 0 16 16">
  <path fill-rule="evenodd" d="M13,10 L12,10 C10.896,10 10,9.104 10,8 L10,7 L9,7 C7.896,7 7,6.104 7,5 C7,3.896 7.896,3 9,3 L10,3 L10,1 L5,1 C3.896,1 3,1.896 3,3 L3,16 L8,13 L13,16 L13,10 Z M16,5 L16,5 C16,5.553 15.553,6 15,6 L13,6 L13,8 C13,8.553 12.553,9 12,9 C11.447,9 11,8.553 11,8 L11,6 L9,6 C8.447,6 8,5.553 8,5 C8,4.447 8.447,4 9,4 L11,4 L11,2 C11,1.447 11.447,1 12,1 C12.553,1 13,1.447 13,2 L13,4 L15,4 C15.553,4 16,4.447 16,5 L16,5 Z"/>
</svg>

<svg width="16" height="16" fill="none" xmlns="http://www.w3.org/2000/svg">
  <path fill-rule="evenodd" clip-rule="evenodd" d="M13 10h-1a2 2 0 01-2-2V7H9a2 2 0 010-4h1V1H5a2 2 0 00-2 2v13l5-3 5 3v-6zm3-5a1 1 0 01-1 1h-2v2a1 1 0 11-2 0V6H9a1 1 0 110-2h2V2a1 1 0 112 0v2h2a1 1 0 011 1z" fill="#000"/>
</svg>
